polaris-icons/icons/new-icons/OrdersMajor.svg

<svg width="20" height="20" viewBox="0 0 20 20" fill="none" xmlns="http://www.w3.org/2000/svg">
<path fill-rule="evenodd" clip-rule="evenodd" d="M6.97553 3.5C5.6124 3.5 4.45499 4.49858 4.25522 5.84699L3.59447 10.3071C3.53158 10.7316 3.5 11.1602 3.5 11.5894V13.25C3.5 15.0449 4.95507 16.5 6.75 16.5H13.25C15.0449 16.5 16.5 15.0449 16.5 13.25V11.5894C16.5 11.1602 16.4684 10.7316 16.4055 10.3071L15.7448 5.84699C15.545 4.49858 14.3876 3.5 13.0245 3.5H6.97553ZM5.73903 6.06681C5.82983 5.4539 6.35593 5 6.97553 5H13.0245C13.6441 5 14.1702 5.4539 14.261 6.06681L14.8437 10H12.3604C11.8223 10 11.3447 10.3443 11.1745 10.8547L11.0164 11.3291C10.9824 11.4311 10.8868 11.5 10.7792 11.5H9.22076C9.11315 11.5 9.01762 11.4311 8.98359 11.3291L8.82547 10.8547C8.65533 10.3443 8.17766 10 7.63962 10H5.15633L5.73903 6.06681ZM5.00055 11.5C5.00018 11.5298 5 11.5596 5 11.5894V13.25C5 14.2165 5.7835 15 6.75 15H13.25C14.2165 15 15 14.2165 15 13.25V11.5894C15 11.5596 14.9998 11.5298 14.9994 11.5H12.5406L12.4394 11.8034C12.2012 12.518 11.5325 13 10.7792 13H9.22076C8.46751 13 7.79876 12.518 7.56056 11.8034L7.45943 11.5H5.00055Z" fill="#4A4A4A"/>
</svg>

<svg viewBox="0 0 20 20" xmlns="http://www.w3.org/2000/svg"><path fill-rule="evenodd" d="M6.976 3.5a2.75 2.75 0 0 0-2.72 2.347l-.662 4.46a8.75 8.75 0 0 0-.094 1.282v1.661a3.25 3.25 0 0 0 3.25 3.25h6.5a3.25 3.25 0 0 0 3.25-3.25v-1.66c0-.43-.032-.858-.095-1.283l-.66-4.46a2.75 2.75 0 0 0-2.72-2.347h-6.05Zm-1.237 2.567a1.25 1.25 0 0 1 1.237-1.067h6.048c.62 0 1.146.454 1.237 1.067l.583 3.933h-2.484a1.25 1.25 0 0 0-1.185.855l-.159.474a.25.25 0 0 1-.237.171h-1.558a.25.25 0 0 1-.237-.17l-.159-.475a1.25 1.25 0 0 0-1.185-.855h-2.484l.583-3.933Zm-.738 5.433-.001.09v1.66c0 .966.784 1.75 1.75 1.75h6.5a1.75 1.75 0 0 0 1.75-1.75v-1.75h-2.46l-.1.303a1.75 1.75 0 0 1-1.66 1.197h-1.56a1.75 1.75 0 0 1-1.66-1.197l-.1-.303h-2.46Z" fill="#5C5F62"/></svg>
